X: 11435
T: Easy Club, The
R: reel
M: 4/4
K: Amajor
|:AEAc BEBd|cAce dcde|faa e2cce|ceec dcBc|
AEAc BEBd|cABc defg|agae faec|1 dcBc A2cB:|2 dcBc Aaga||
|:f3 d2 aga|e3 c2 aga|f3 d2 aga|ceec dcBc|
ABcA BcdB|cdec defg|agae faec|1 dBGB A aga:|2 dBGB A4||

